X:1
T:Title
%%score ( 1 2 ) { 3 | 4 }
L:1/8
Q:1/4=104
M:3/4
K:Bb
V:1 treble nm="Bright Piano"
V:2 treble 
V:3 bass nm="Bright Piano"
V:4 bass 
V:1
 [DF]2 [_D=E]2 [=DF]2 | [B,D]4 [CE]2 | [DF]2 [Fd]2 [Ec][DB] | [EA]4 [EG]2 | [CE]4 [B,D]2 | %5
w: Wilhelm~Brockhaus * *|||||
 [A,C]2 [EA]2 [EG]2 | [DF]4 [CE]2 | D4 z2 | [DF]2 [_D=E]2 [=DF]2 | [B,D]4 [DB]2 | %10
w: |||||
 [GB]2 [FA]2 [=EG]2 | [Fc]4 F2 | [Fd]2 [Ac][GB] AG | [Fc]4 z G | [FA]4 [=EG]2 | F4 z2 | E4 [CE]2 | %17
w: |||||||
 [Ec]2 [DB]2 [CA]2 | [B,B]2 [CA]2 [DB]2 | [Fd]4 [Fc]2 | [Fe]4 [Fd]2 | [Ec]4 [DB]2 | [CA]4 [DB]2 | %23
w: ||||||
 [Ec]6 | [EF]4 z2 | [DB]4 AG | [D^F]4 D2 | [DG]4 [DA]2 | [DB]4 z2 | [Fc]4 [EF]2 | d2 c2 [FB]2 | %31
w: ||||||||
 A2 G2 [EA]2 | [DB]4 z2 |] %33
w: ||
V:2
 x6 | x6 | x6 | x6 | x6 | x6 | x6 | x6 | x6 | x6 | x6 | x6 | x6 | z2 z2 F2 | x6 | x6 | x6 | x6 | %18
 x6 | x6 | x6 | x6 | x6 | x6 | x6 | z2 z2 D2 | x6 | x6 | x6 | x6 | D4 z2 | E4 z2 | x6 |] %33
V:3
 F,2 G,2 F,2 | F,4 F,2 | F,4 F,2 | F,4 F,2 | F,4 F,2 | F,4 F,2 | F,4 A,2 | B,4 z2 | F,2 G,2 F,2 | %9
 F,4 F,2 | =E,2 F,2 B,2 | A,4 A,2 | B,4 CB, | A,4 A,B, | C4 B,2 | A,4 z2 | A,2 G,2 F,2 | F,4 F,2 | %18
 F,2 E,2 F,2 | B,4 A,2 | C4 B,2 | A,4 B,2 | F,4 F,2 | F,6 | A,4 z2 | G,4 G,2 | A,4 A,2 | B,4 ^F,2 | %28
 G,4 z2 | A,4 A,2 | B,4 B,2 | C4 C2 | B,4 z2 |] %33
V:4
 B,,4 B,,2 | B,,4 B,,2 | B,,4 A,,B,, | C,4 B,,2 | A,,4 B,,2 | z6 | z2 z2 F,2 | B,,4 z2 | %8
 B,,4 B,,2 | B,,4 B,,2 | C,4 C,2 | C,4 C,2 | B,,4 B,,2 | C,4 C,2 | C,4 C,2 | F,4 z2 | F,4 z2 | %17
 z2 z2 E,2 | D,2 C,2 B,,2 | F,4 F,2 | A,,4 B,,2 | F,4 F,2 | z6 | z6 | F,4 z2 | G,,4 B,,2 | %26
 D,4 C,2 | B,,4 A,,2 | G,,4 z2 | F,4 F,2 | B,,4 D,2 | F,4 F,2 | B,,4 z2 |] %33

